img/work2.svg

<svg width="48" height="48" viewBox="0 0 48 48" fill="none" xmlns="http://www.w3.org/2000/svg">
<circle cx="24" cy="24" r="24" fill="#E8FAFA"/>
<path d="M27.0857 23.6572C27.8431 23.6572 28.4571 23.0432 28.4571 22.2857C28.4571 21.5283 27.8431 20.9143 27.0857 20.9143C26.3283 20.9143 25.7143 21.5283 25.7143 22.2857C25.7143 23.0432 26.3283 23.6572 27.0857 23.6572Z" fill="#23CEC9"/>
<path d="M33.6 15.4285C33.6 15.1557 33.4916 14.8941 33.2987 14.7012C33.1058 14.5083 32.8442 14.3999 32.5714 14.3999H20.5714V33.5999H32.5714C32.8442 33.5999 33.1058 33.4915 33.2987 33.2986C33.4916 33.1057 33.6 32.8441 33.6 32.5713V15.4285ZM27.0857 29.1428C26.0686 29.1428 25.0742 28.8411 24.2285 28.276C23.3828 27.7109 22.7236 26.9077 22.3343 25.968C21.9451 25.0283 21.8432 23.9942 22.0417 22.9966C22.2401 21.999 22.7299 21.0826 23.4492 20.3634C24.1684 19.6441 25.0848 19.1543 26.0824 18.9559C27.08 18.7574 28.1141 18.8593 29.0538 19.2485C29.9935 19.6378 30.7967 20.2969 31.3618 21.1427C31.9269 21.9884 32.2286 22.9827 32.2286 23.9999C32.227 25.3634 31.6847 26.6706 30.7206 27.6347C29.7564 28.5989 28.4492 29.1412 27.0857 29.1428Z" fill="#23CEC9"/>
<path d="M27.0857 19.5428C26.239 19.542 25.4096 19.7824 24.6947 20.236C23.9798 20.6896 23.409 21.3376 23.0492 22.104C22.6894 22.8704 22.5555 23.7235 22.6631 24.5633C22.7708 25.4031 23.1156 26.1949 23.6571 26.8457V26.0571C23.658 25.5007 23.8519 24.9617 24.2058 24.5323C24.5597 24.1029 25.0517 23.8096 25.5977 23.7024C25.3196 23.411 25.1331 23.0444 25.0614 22.6481C24.9897 22.2517 25.036 21.843 25.1944 21.4727C25.3529 21.1024 25.6166 20.7867 25.9528 20.5649C26.289 20.343 26.6829 20.2248 27.0857 20.2248C27.4885 20.2248 27.8824 20.343 28.2187 20.5649C28.5549 20.7867 28.8185 21.1024 28.977 21.4727C29.1355 21.843 29.1817 22.2517 29.11 22.6481C29.0383 23.0444 28.8518 23.411 28.5737 23.7024C29.1198 23.8096 29.6117 24.1029 29.9656 24.5323C30.3195 24.9617 30.5134 25.5007 30.5143 26.0571V26.8457C31.0558 26.1949 31.4006 25.4031 31.5083 24.5633C31.616 23.7235 31.4821 22.8704 31.1222 22.104C30.7624 21.3376 30.1916 20.6896 29.4767 20.236C28.7618 19.7824 27.9324 19.542 27.0857 19.5428Z" fill="#23CEC9"/>
<path d="M28.1143 24.3429H26.0571C25.6027 24.3434 25.1669 24.5242 24.8456 24.8456C24.5242 25.167 24.3434 25.6027 24.3429 26.0572V27.5061C25.1244 28.1221 26.0906 28.4572 27.0857 28.4572C28.0809 28.4572 29.047 28.1221 29.8286 27.5061V26.0572C29.828 25.6027 29.6472 25.167 29.3259 24.8456C29.0045 24.5242 28.5688 24.3434 28.1143 24.3429Z" fill="#23CEC9"/>
<path d="M17.8286 21.9429C17.8286 21.7611 17.7563 21.5866 17.6277 21.458C17.4991 21.3294 17.3247 21.2572 17.1429 21.2572H15.0857C14.9039 21.2572 14.7294 21.3294 14.6008 21.458C14.4722 21.5866 14.4 21.7611 14.4 21.9429C14.4 22.1248 14.4722 22.2992 14.6008 22.4278C14.7294 22.5564 14.9039 22.6286 15.0857 22.6286H17.1429C17.3247 22.6286 17.4991 22.5564 17.6277 22.4278C17.7563 22.2992 17.8286 22.1248 17.8286 21.9429Z" fill="#23CEC9"/>
<path d="M16.4571 15.4285V16.457H17.1429C17.5066 16.457 17.8554 16.6015 18.1126 16.8587C18.3698 17.1159 18.5143 17.4647 18.5143 17.8285C18.5143 18.1922 18.3698 18.541 18.1126 18.7982C17.8554 19.0554 17.5066 19.1999 17.1429 19.1999H16.4571V20.5713H17.1429C17.5066 20.5713 17.8554 20.7158 18.1126 20.973C18.3698 21.2302 18.5143 21.579 18.5143 21.9428C18.5143 22.3065 18.3698 22.6553 18.1126 22.9125C17.8554 23.1697 17.5066 23.3142 17.1429 23.3142H16.4571V25.0285H17.1429C17.5066 25.0285 17.8554 25.173 18.1126 25.4302C18.3698 25.6873 18.5143 26.0362 18.5143 26.3999C18.5143 26.7636 18.3698 27.1125 18.1126 27.3696C17.8554 27.6268 17.5066 27.7713 17.1429 27.7713H16.4571V29.1428H17.1429C17.5066 29.1428 17.8554 29.2872 18.1126 29.5444C18.3698 29.8016 18.5143 30.1505 18.5143 30.5142C18.5143 30.8779 18.3698 31.2267 18.1126 31.4839C17.8554 31.7411 17.5066 31.8856 17.1429 31.8856H16.4571V32.5713C16.4571 32.8441 16.5655 33.1057 16.7584 33.2986C16.9513 33.4915 17.2129 33.5999 17.4857 33.5999H19.8857V14.3999H17.4857C17.2129 14.3999 16.9513 14.5083 16.7584 14.7012C16.5655 14.8941 16.4571 15.1557 16.4571 15.4285Z" fill="#23CEC9"/>
<path d="M15.0857 18.5143H17.1429C17.3247 18.5143 17.4991 18.442 17.6277 18.3134C17.7563 18.1848 17.8286 18.0104 17.8286 17.8285C17.8286 17.6467 17.7563 17.4723 17.6277 17.3437C17.4991 17.2151 17.3247 17.1428 17.1429 17.1428H15.0857C14.9039 17.1428 14.7294 17.2151 14.6008 17.3437C14.4722 17.4723 14.4 17.6467 14.4 17.8285C14.4 18.0104 14.4722 18.1848 14.6008 18.3134C14.7294 18.442 14.9039 18.5143 15.0857 18.5143Z" fill="#23CEC9"/>
<path d="M17.8286 26.4001C17.8286 26.2182 17.7563 26.0438 17.6277 25.9152C17.4991 25.7866 17.3247 25.7144 17.1429 25.7144H15.0857C14.9039 25.7144 14.7294 25.7866 14.6008 25.9152C14.4722 26.0438 14.4 26.2182 14.4 26.4001C14.4 26.5819 14.4722 26.7563 14.6008 26.8849C14.7294 27.0135 14.9039 27.0858 15.0857 27.0858H17.1429C17.3247 27.0858 17.4991 27.0135 17.6277 26.8849C17.7563 26.7563 17.8286 26.5819 17.8286 26.4001Z" fill="#23CEC9"/>
<path d="M17.8286 30.5142C17.8286 30.3323 17.7563 30.1579 17.6277 30.0293C17.4991 29.9007 17.3247 29.8285 17.1429 29.8285H15.0857C14.9039 29.8285 14.7294 29.9007 14.6008 30.0293C14.4722 30.1579 14.4 30.3323 14.4 30.5142C14.4 30.6961 14.4722 30.8705 14.6008 30.9991C14.7294 31.1277 14.9039 31.1999 15.0857 31.1999H17.1429C17.3247 31.1999 17.4991 31.1277 17.6277 30.9991C17.7563 30.8705 17.8286 30.6961 17.8286 30.5142Z" fill="#23CEC9"/>
</svg>

<svg width="48" height="48" fill="none" xmlns="http://www.w3.org/2000/svg"><circle cx="24" cy="24" r="24" fill="#E8FAFA"/><path d="M27.086 23.657a1.371 1.371 0 1 0 0-2.743 1.371 1.371 0 0 0 0 2.743Z" fill="#23CEC9"/><path d="M33.6 15.428a1.029 1.029 0 0 0-1.029-1.028h-12v19.2h12A1.029 1.029 0 0 0 33.6 32.57V15.43Zm-6.514 13.715A5.143 5.143 0 1 1 32.229 24a5.149 5.149 0 0 1-5.143 5.143Z" fill="#23CEC9"/><path d="M27.086 19.543a4.455 4.455 0 0 0-3.429 7.303v-.789a2.404 2.404 0 0 1 1.94-2.355 2.058 2.058 0 1 1 2.977 0 2.404 2.404 0 0 1 1.94 2.355v.789a4.454 4.454 0 0 0-3.428-7.303Z" fill="#23CEC9"/><path d="M28.114 24.343h-2.057a1.716 1.716 0 0 0-1.714 1.714v1.45a4.43 4.43 0 0 0 5.486 0v-1.45a1.717 1.717 0 0 0-1.715-1.714ZM17.829 21.943a.686.686 0 0 0-.686-.686h-2.057a.686.686 0 1 0 0 1.372h2.057a.686.686 0 0 0 .686-.686Z" fill="#23CEC9"/><path d="M16.457 15.428v1.029h.686a1.371 1.371 0 0 1 0 2.743h-.686v1.371h.686a1.371 1.371 0 0 1 0 2.743h-.686v1.715h.686a1.371 1.371 0 0 1 0 2.742h-.686v1.372h.686a1.371 1.371 0 1 1 0 2.743h-.686v.685a1.029 1.029 0 0 0 1.029 1.029h2.4V14.4h-2.4a1.029 1.029 0 0 0-1.029 1.028Z" fill="#23CEC9"/><path d="M15.086 18.514h2.057a.686.686 0 0 0 0-1.371h-2.057a.686.686 0 0 0 0 1.371ZM17.829 26.4a.686.686 0 0 0-.686-.686h-2.057a.686.686 0 1 0 0 1.372h2.057a.686.686 0 0 0 .686-.686ZM17.829 30.514a.686.686 0 0 0-.686-.686h-2.057a.686.686 0 1 0 0 1.372h2.057a.686.686 0 0 0 .686-.686Z" fill="#23CEC9"/></svg>
